X: 83
T:Polca de Niza
M:2/4
L:1/16
Q:150
C:Trad
R:Polca
K:C
CDEF | G"F."cG2 E"F."cE2 | C2"F."G2 CDEF | "~"G2 AG F2E2 | "~"F2D2 B,CDE
 |
 F"F."cF2 D"F."cD2 | B,4 D2E2 | F2GF E2D2 |1 E2C"F."G :|2|: {B,}C2G2 A2G
2 | F2"F."c2 FGFE |
D2G2 A2G2 | E2"F."c2 EFED | C2G2 A2G2 | F2"F."c2 FGFE | D2G2 A2G2 | "~"E
2C2 "~"D2B,2 :| C2"F.    D.C."G2

